modules/open-iconic/icons/grid-four-up.svg

<svg xmlns="http://www.w3.org/2000/svg" width="8" height="8" viewBox="0 0 8 8">
  <path d="M0 0v1h1v-1h-1zm2 0v1h1v-1h-1zm2 0v1h1v-1h-1zm2 0v1h1v-1h-1zm-6 2v1h1v-1h-1zm2 0v1h1v-1h-1zm2 0v1h1v-1h-1zm2 0v1h1v-1h-1zm-6 2v1h1v-1h-1zm2 0v1h1v-1h-1zm2 0v1h1v-1h-1zm2 0v1h1v-1h-1zm-6 2v1h1v-1h-1zm2 0v1h1v-1h-1zm2 0v1h1v-1h-1zm2 0v1h1v-1h-1z"
  />
</svg>

<svg xmlns="http://www.w3.org/2000/svg" width="8" height="8"><path d="M0 0v1h1V0H0zm2 0v1h1V0H2zm2 0v1h1V0H4zm2 0v1h1V0H6zM0 2v1h1V2H0zm2 0v1h1V2H2zm2 0v1h1V2H4zm2 0v1h1V2H6zM0 4v1h1V4H0zm2 0v1h1V4H2zm2 0v1h1V4H4zm2 0v1h1V4H6zM0 6v1h1V6H0zm2 0v1h1V6H2zm2 0v1h1V6H4zm2 0v1h1V6H6z"/></svg>
